app/dist/common/images/brc.svg

<svg height="18" viewBox="0 0 18 18" width="18" xmlns="http://www.w3.org/2000/svg"><path d="m0 0h18v18h-18z" fill="#181b1e"/><g fill="#f0f3fa"><path d="m9 4a5 5 0 1 1 0 10 5 5 0 0 1 0-10zm-.3 9.28v-3.28h.6v3.26c2.2 0 3.98-2.26 3.98-3.96h-3.28v-.6h3.28c0-2.2-2.28-4-3.98-4v3.3h-.6v-3.3c-1.7 0-3.98 1.8-3.98 4h3.28v.6l-3.28-.01c0 2.2 2.28 3.99 3.98 3.99z"/><path d="m7 6h1v2h-1zm0 4h1v2h-1zm3-4h1v2h-1zm0 4h1v2h-1z"/></g></svg>

<!-- by TradingView --><svg width="18" height="18" viewBox="0 0 18 18" xmlns="http://www.w3.org/2000/svg"><path fill="#181B1E" d="M0 0h18v18H0z"/><path d="M9 4a5 5 0 1 1 0 10A5 5 0 0 1 9 4Zm-.3 9.28V10h.6v3.26c2.2 0 3.98-2.26 3.98-3.96H10v-.6h3.28c0-2.2-2.28-4-3.98-4V8h-.6V4.7c-1.7 0-3.98 1.8-3.98 4H8v.6l-3.28-.01c0 2.2 2.28 3.99 3.98 3.99Z" fill="#F0F3FA"/><path fill="#F0F3FA" d="M7 6h1v2H7zM7 10h1v2H7zM10 6h1v2h-1zM10 10h1v2h-1z"/></svg>
